X: 4610
T: Bourree
R: barndance
M: 4/4
K: Dminor
|:"Dm"d4 d2 ef|"C" g2 c2 c2 c2|"Bb" d2 f2 e2 d2|1 "A" ^c2 A2 A4:|2 "A" c2 A2 A2 ag||
|:"F" f2 f2 f2 ag|f2 f2 f2 ag|f2 a2 f2 a2|"C" g2e2 c2 g2|
ef g2 "A" ef g2|"Dm" f2 d2 defg|"Gm" a2 gf "A" e3 d|1 "Dm" d6 ag:|2 "Dm" d8||
|:"Dm" F4 A2 GA|"C" c2 G2 E2 G2|"Bb" B2 d2 c2 B2|1 "A" A2 E2 G4:|2 "A" A2 E2 E2 z2||
|:"F" A2 c2 A2 z2|A2 c2 A2 z2|A2 c2 A2 c2|"C" e2 c2 g2 c2|
c4 "A" ^c4|"Dm" d2 A2 FGAB|"Gm" c2 B2 "A" A2 G2|1 "Dm" F6 z2:|2 "Dm" F2 A2 F4||

